/* XPM */
static const char * const neoerf_icon_xpm[] = {
/* columns rows colors chars-per-pixel */
"32 32 134 2 ",
"   c None",
".  c #010100",
"X  c #0C0900",
"o  c #1B1800",
"O  c #232200",
"+  c #2F2B00",
"@  c #393400",
"#  c #433D00",
"$  c #483E00",
"%  c #4D4500",
"&  c #4F4800",
"*  c #534A00",
"=  c #5B5100",
"-  c #615700",
";  c #635900",
":  c #6E6300",
">  c #726700",
",  c #766900",
"<  c #7B6C01",
"1  c #7D7200",
"2  c #847500",
"3  c #867901",
"4  c #8A7B00",
"5  c #8E8100",
"6  c #938401",
"7  c #988600",
"8  c #968901",
"9  c #9A8B00",
"0  c #9E9101",
"q  c #9D9800",
"w  c #A08F00",
"e  c #A39201",
"r  c #AA9600",
"t  c #A39B01",
"y  c #AC9B00",
"u  c #B29D01",
"i  c #AFA101",
"p  c #ADAC01",
"a  c #B4A500",
"s  c #B8A601",
"d  c #BCAC01",
"f  c #BDB201",
"g  c #C1AC01",
"h  c #C7B401",
"j  c #CAB401",
"k  c #C2B801",
"l  c #CCBB01",
"z  c #D3BE01",
"x  c #CAC701",
"c  c #D4C501",
"v  c #DAC401",
"b  c #D6CD01",
"n  c #DECA01",
"m  c #D7D401",
"M  c #DFD501",
"N  c #E3CB01",
"B  c #E9CF01",
"V  c #ECD401",
"C  c #EEDA01",
"Z  c #F1D701",
"A  c #F4DB01",
"S  c #F8DE01",
"D  c #ECE501",
"F  c #EDEA01",
"G  c #F6E201",
"H  c #FCE501",
"J  c #FDE401",
"K  c #FFE601",
"L  c #FEE701",
"P  c #FFE701",
"I  c #FAE201",
"U  c #F0E901",
"Y  c #F0EA01",
"T  c #F6E901",
"R  c #F5EB01",
"E  c #F6EA01",
"W  c #F7EA01",
"Q  c #F3EF01",
"!  c #F5ED01",
"~  c #F5EF01",
"^  c #F7E801",
"/  c #F8E901",
"(  c #F9E901",
")  c #F9EB01",
"_  c #FAEB01",
"`  c #FDE801",
"'  c #FCE901",
"]  c #FDE901",
"[  c #FFE801",
"{  c #FCEA01",
"}  c #FFEA01",
"|  c #FFEB01",
" . c #FAED01",
".. c #FFEC01",
"X. c #FDEE01",
"o. c #FCEF01",
"O. c #FCEA01",
"+. c #F2F101",
"@. c #F4F101",
"#. c #F4F401",
"$. c #F5F401",
"%. c #F5F501",
"&. c #F6F101",
"*. c #F8F201",
"=. c #FBF301",
"-. c #FFF101",
";. c #FFF201",
":. c #FFF301",
">. c #F9F401",
",. c #F9F501",
"<. c #FAF401",
"1. c #FBF401",
"2. c #F9F601",
"3. c #F9F701",
"4. c #FAF701",
"5. c #FFF501",
"6. c #FCF601",
"7. c #FDF601",
"8. c #FCF701",
"9. c #FFF601",
"0. c #FBF501",
"q. c #F8F801",
"w. c #FBF901",
"e. c #FCF801",
"r. c #FCF901",
"t. c #FFF801",
"y. c #FFFA01",
"u. c #FFFB01",
"i. c #FCFC01",
"p. c #FFFC01",
"a. c #FEFE01",
"s. c #FFFE01",
"d. c #FFFF01",
"f. c #FDFA01",
/* pixels */
"                                                                ",
"                                                                ",
"                                                                ",
"                                                                ",
"                                                                ",
"                                                                ",
". . . . . . . . . . .   . . . . . . .     . . . . . . . . . . . ",
"6 V N n N N N N v K e   y H v N N n Z 4 o s K v N N N N n N V : ",
"r ! { I K K K K G d.p   f d.S I I S I d.5 l 5.I K K K K I { +.3 ",
"8 A Z V Z V V V N ;.y   s 5.N J *.*.I { 3 d J V Z C V V B V A , ",
"u #.K Z Z ( 5.5.@.d.p   s t.Z g 9 7 h ;.6 x d.A V A o.3.3.t.+.4 ",
"* , d G { e : 1 , 6 *   d t.E ;     X F 1 # 2 z 5.n 4 > 1 1 2 @ ",
"    < F d.$             d 3.( 5       l G # . 0 d.k             ",
"    < D t.$             d 3.E >       g d.q   t d.k             ",
"    3 E { r < w :       d 3.G 3 + + - M d.    f d.n 9 4 9 &     ",
"    4 ( A ! #.q.b       d 3.V K ;.;.{ #.l     l o.C t.#.t.j     ",
"    4 E { u 4 y <       d 3.B A V V I g O     f d.n e 7 r =     ",
"    3 Y t.$             i 3.V N Z  .j o       d d.k O           ",
"    3 Y t.$             a q.Z : z ^ 5.&       i d.c             ",
"    4 E o.7 ; > : , : * 0 d.Y $ & Q 5.g > : % y i.c             ",
"    4 ( A ^ t.t.5.d.5.g 5 d.( 3   N { I *.d.t r d.b             ",
"    4 ( A V V V B A Z e 6 t.( 5   ; @.C N { 6 e d.b             ",
"    6 3.( A I I S { E u 8 d.*.4     l t.G 5.0 y d.m             ",
"    1 G V N V V N Z V e 5 o.A 1     & V C A 8 9 5.c             ",
"    . . . . . . . . . . . . . .       . . . . . . .             ",
"                                                                ",
"                                                                ",
"                                                                ",
"                                                                ",
"                                                                ",
"                                                                ",
"                                                                "
};
